assets/themes/natuurpunt/drips.svg

<?xml version="1.0" encoding="UTF-8" standalone="no"?>
<svg
   width="151.85362"
   height="165.0014"
   viewBox="0 0 151.85362 165.0014"
   version="1.1"
   id="svg5"
   sodipodi:docname="drips.svg"
   inkscape:version="1.1.1 (1:1.1+202109281949+c3084ef5ed)"
   xmlns:inkscape="http://www.inkscape.org/namespaces/inkscape"
   xmlns:sodipodi="http://sodipodi.sourceforge.net/DTD/sodipodi-0.dtd"
   xmlns="http://www.w3.org/2000/svg"
   xmlns:svg="http://www.w3.org/2000/svg">
  <defs
     id="defs9" />
  <sodipodi:namedview
     id="namedview7"
     pagecolor="#505050"
     bordercolor="#eeeeee"
     borderopacity="1"
     inkscape:pageshadow="0"
     inkscape:pageopacity="0"
     inkscape:pagecheckerboard="0"
     showgrid="false"
     inkscape:zoom="4.1922078"
     inkscape:cx="71.799876"
     inkscape:cy="60.707869"
     inkscape:current-layer="svg5" />
  <g
     id="surface1"
     transform="translate(-120.80792,55.001399)">
    <path
       style="fill:#ffffff;fill-opacity:1;fill-rule:nonzero;stroke:none"
       d="m 258.71875,-55 h -123.75 c -4.14063,-0.05859 -8.09375,1.726562 -10.79297,4.871094 -2.69922,3.144531 -3.85937,7.324218 -3.17578,11.410156 l 23.53906,136.507812 c 0.92578,6.914068 6.77735,12.109378 13.75,12.210938 h 77 c 6.82422,-0.0508 12.64453,-4.94531 13.85938,-11.660156 L 272.46875,-38.71875 c 0.67969,-4.046875 -0.45703,-8.191406 -3.10547,-11.324219 -2.64453,-3.136719 -6.53906,-4.949219 -10.64453,-4.957031 z m -37.83984,92.179688 c 0,0 0,0.660156 0,0.992187 -0.22657,1.125 -0.5586,2.230469 -0.98829,3.296875 v 1.101562 c -0.44921,0.988282 -0.96093,1.941407 -1.53906,2.859376 -0.1914,0.441406 -0.45312,0.851562 -0.77344,1.210937 -0.55859,0.851563 -1.18359,1.660156 -1.86718,2.417969 L 214.5,50.269531 212.30078,52.140625 211.19922,52.910156 209,53.679688 c -3.67578,1.988281 -7.8125,2.972656 -11.98828,2.859374 -11.28516,-0.21875 -20.8086,-8.445312 -22.66016,-19.578124 -1.05469,-5.871094 0.25,-11.917969 3.62891,-16.832032 C 184.03125,11 190.07812,1.648438 196.23828,-7.589844 c 0.27734,-0.570312 0.85547,-0.929687 1.48828,-0.929687 0.63281,0 1.20703,0.359375 1.48438,0.929687 6.05078,9.128906 12.21093,18.371094 18.14843,27.5 l 0.87891,1.429688 c 0.39844,0.742187 0.73047,1.511718 0.99219,2.308594 v 0.992187 c 0.44531,1.136719 0.77734,2.316406 0.98828,3.519531 0.0508,0.292969 0.0508,0.589844 0,0.878906 0.10937,1.207032 0.10937,2.421876 0,3.632813 v 0.988281 c 0.33203,1.148438 0.55078,2.328125 0.66016,3.519532 z m 0,0"
       id="path2" />
  </g>
</svg>

<?xml version="1.0" encoding="UTF-8" standalone="yes"?>
<svg xmlns="http://www.w3.org/2000/svg" xmlns:xlink="http://www.w3.org/1999/xlink" width="385px" height="11px" viewBox="0 0 385 11" version="1.1">
  <g id="surface1">
    <path style=" stroke:none;fill-rule:nonzero;fill:rgb(100%,100%,100%);fill-opacity:1;" d="M 258.71875 -55 L 134.96875 -55 C 130.828125 -55.058594 126.875 -53.273438 124.175781 -50.128906 C 121.476562 -46.984375 120.316406 -42.804688 121 -38.71875 L 144.539062 97.789062 C 145.464844 104.703125 151.316406 109.898438 158.289062 110 L 235.289062 110 C 242.113281 109.949219 247.933594 105.054688 249.148438 98.339844 L 272.46875 -38.71875 C 273.148438 -42.765625 272.011719 -46.910156 269.363281 -50.042969 C 266.71875 -53.179688 262.824219 -54.992188 258.71875 -55 Z M 220.878906 37.179688 C 220.878906 37.179688 220.878906 37.839844 220.878906 38.171875 C 220.652344 39.296875 220.320312 40.402344 219.890625 41.46875 L 219.890625 42.570312 C 219.441406 43.558594 218.929688 44.511719 218.351562 45.429688 C 218.160156 45.871094 217.898438 46.28125 217.578125 46.640625 C 217.019531 47.492188 216.394531 48.300781 215.710938 49.058594 L 214.5 50.269531 L 212.300781 52.140625 L 211.199219 52.910156 L 209 53.679688 C 205.324219 55.667969 201.1875 56.652344 197.011719 56.539062 C 185.726562 56.320312 176.203125 48.09375 174.351562 36.960938 C 173.296875 31.089844 174.601562 25.042969 177.980469 20.128906 C 184.03125 11 190.078125 1.648438 196.238281 -7.589844 C 196.515625 -8.160156 197.09375 -8.519531 197.726562 -8.519531 C 198.359375 -8.519531 198.933594 -8.160156 199.210938 -7.589844 C 205.261719 1.539062 211.421875 10.78125 217.359375 19.910156 L 218.238281 21.339844 C 218.636719 22.082031 218.96875 22.851562 219.230469 23.648438 L 219.230469 24.640625 C 219.675781 25.777344 220.007812 26.957031 220.21875 28.160156 C 220.269531 28.453125 220.269531 28.75 220.21875 29.039062 C 220.328125 30.246094 220.328125 31.460938 220.21875 32.671875 L 220.21875 33.660156 C 220.550781 34.808594 220.769531 35.988281 220.878906 37.179688 Z M 220.878906 37.179688 "/>
  </g>
</svg>
